icons/plus-circle-24.svg

<svg width="24" height="24" viewBox="0 0 24 24" xmlns="http://www.w3.org/2000/svg">
  <path d="M12.75 7.75C12.75 7.33579 12.4142 7 12 7C11.5858 7 11.25 7.33579 11.25 7.75V11.25H7.75C7.33579 11.25 7 11.5858 7 12C7 12.4142 7.33579 12.75 7.75 12.75H11.25V16.25C11.25 16.6642 11.5858 17 12 17C12.4142 17 12.75 16.6642 12.75 16.25V12.75H16.25C16.6642 12.75 17 12.4142 17 12C17 11.5858 16.6642 11.25 16.25 11.25H12.75V7.75Z"/>
  <path fill-rule="evenodd" clip-rule="evenodd" d="M12 1C5.92487 1 1 5.92487 1 12C1 18.0751 5.92487 23 12 23C18.0751 23 23 18.0751 23 12C23 5.92487 18.0751 1 12 1ZM2.5 12C2.5 6.75329 6.75329 2.5 12 2.5C17.2467 2.5 21.5 6.75329 21.5 12C21.5 17.2467 17.2467 21.5 12 21.5C6.75329 21.5 2.5 17.2467 2.5 12Z"/>
</svg>

<svg xmlns="http://www.w3.org/2000/svg" width="24" height="24" viewBox="0 0 24 24"><path d="M12.75 7.75a.75.75 0 00-1.5 0v3.5h-3.5a.75.75 0 000 1.5h3.5v3.5a.75.75 0 001.5 0v-3.5h3.5a.75.75 0 000-1.5h-3.5v-3.5z"/><path fill-rule="evenodd" d="M12 1C5.925 1 1 5.925 1 12s4.925 11 11 11 11-4.925 11-11S18.075 1 12 1zM2.5 12a9.5 9.5 0 1119 0 9.5 9.5 0 01-19 0z"/></svg>
